X:1
T:Title
L:1/8
Q:1/4=120
M:3/4
K:C
V:1 treble nm="Church Organ, Staff"
V:1
 E2 E3 F | A>G G2 E2 | E2 G3 G | B>A G4 | E2 E3 F | AG GE c2 | E2 ^FG A2 | B2 G4 | z2 z2 z B | %9
w: By~J.~F.~Bridge,~Mus.~Doc * *|||||||||
 cA B>A G2 | z2 z2 z B | cA d>c B2 | G2 AG c2 | G2 GF B2 | A2 G3 A | Bc d4 | %16
w: |||||||
[M:9/8] G2 c- c2 B- B/ z/ AB- | BGA- A3- A3/2 z/ A- | A2 B- B2 A- A/ z/ GA- | AFG- G3- G3/2 z/ E- | %20
w: ||||
 E2 F- F/ z/ GA- A/ z/ Bc- | cde- e3- e3/2 z/ G- | G2 A- A/ z/ Bc- c3/2 z/ e | %23
w: |||
 d c2- c3- c/ z/ z z |] %24
w: |

